packages/foundations/assets/icons/functional/images/social/thumbs_down_20.svg

<svg xmlns="http://www.w3.org/2000/svg" width="20" height="20" fill="none"><g clip-path="url(#a)"><path fill="#1A1C1F" fill-rule="evenodd" d="M13.51 13.001a8.7 8.7 0 0 1 .392 1.575c.126.882-.083 1.719-.592 2.356A2.87 2.87 0 0 1 11.27 18c-1.615-.018-2.14-1.675-2.354-2.359-.516-1.414-1.291-2.162-1.931-2.565a.99.99 0 0 1-.985.926H3a1 1 0 0 1-1-1V4a1 1 0 0 1 1-1h3c.442 0 .805.291.937.689C8.71 2.945 11.132 2 12 2c2.916 0 6 3.598 6 7 0 1.094 0 4-3 4zm-9.51-8v7.001h1V5.001zm3 .838v5.029c1.066.392 2.824 1.43 3.81 4.132.219.698.369.921.443.993a.86.86 0 0 0 .493-.306q.25-.314.176-.827c-.172-1.2-.796-2.372-.803-2.384a1 1 0 0 1 .88-1.474h3c.581 0 1 0 1-2 0-2.48-2.327-5-3.993-5-.526.025-2.889.929-5.006 1.837" clip-rule="evenodd"/></g><defs><clipPath id="a"><path fill="#fff" d="M0 0h20v20H0z"/></clipPath></defs></svg>

<svg width="20" height="20" viewBox="0 0 20 20" fill="none" xmlns="http://www.w3.org/2000/svg">
<g clip-path="url(#clip0_187_451)">
<path fill-rule="evenodd" clip-rule="evenodd" d="M13.51 13.001C13.671 13.471 13.822 14.015 13.902 14.576C14.028 15.458 13.819 16.295 13.31 16.932C12.822 17.545 12.102 17.933 11.27 18C9.655 17.982 9.13 16.325 8.916 15.641C8.4 14.227 7.625 13.479 6.985 13.076C6.945 13.592 6.526 14.002 6 14.002H3C2.448 14.002 2 13.555 2 13.002V4C2 3.447 2.448 3 3 3H6C6.442 3 6.805 3.291 6.937 3.689C8.71 2.945 11.132 2 12 2C14.916 2 18 5.598 18 9C18 10.094 18 13 15 13L13.51 13.001ZM4 5.001V12.002H5V5.195V5.001H4ZM7 5.839V10.868C8.066 11.26 9.824 12.298 10.81 15C11.029 15.698 11.179 15.921 11.253 15.993C11.411 15.96 11.603 15.867 11.746 15.687C11.912 15.479 11.971 15.201 11.922 14.86C11.75 13.66 11.126 12.488 11.119 12.476C10.952 12.166 10.961 11.79 11.141 11.489C11.321 11.188 11.647 11.002 11.999 11.002H14.999C15.58 11.002 15.999 11.002 15.999 9.002C15.999 6.522 13.672 4.002 12.006 4.002C11.48 4.027 9.117 4.931 7 5.839Z" fill="#1A1C1F"/>
</g>
<defs>
<clipPath id="clip0_187_451">
<rect width="20" height="20" fill="white"/>
</clipPath>
</defs>
</svg>
